src/assets/img/html.svg

<svg width="54" height="60" fill="none" xmlns="http://www.w3.org/2000/svg"><path d="m27 48.534 13.86-3.768 1.869-20.334H18.078l-.612-6.762h25.878l.681-6.633H9.975l1.908 20.034h23.46l-.783 8.598L27 41.67l-7.56-2.001-.474-5.532h-6.81l.987 10.632L27 48.534ZM0 0h54l-4.869 54L27 60 4.869 54 0 0Z" fill="#930f50"/></svg>

<svg width="54" height="60" viewBox="0 0 54 60" fill="none" xmlns="http://www.w3.org/2000/svg">
<path d="M27 48.534L40.86 44.766L42.729 24.432H18.078L17.466 17.67H43.344L44.025 11.037H9.975L11.883 31.071H35.343L34.56 39.669L27 41.67L19.44 39.669L18.966 34.137H12.156L13.143 44.769L27 48.534ZM0 0H54L49.131 54L27 60L4.869 54L0 0Z" fill="#930f50"/>
</svg>
